X:1
T:I with Thee Would Begin
T:Wilhelm Theodor Söderberg, 1884
T:I with Thee Would Begin
T:Public Domain
T:Public Domain
C:Wilhelm Theodor S&#246;derberg, 1884
Z:Public Domain
%%score ( 1 2 ) ( 3 4 )
L:1/8
M:4/4
K:G
V:1 treble 
V:2 treble 
V:3 bass 
V:4 bass 
V:1
 [B,D][CE] | [B,D]2 [DG][DA] [DB]2 [CA][B,G] | [EA]2 [EG][CE] [B,D]2 [DB][Ec] | %3
w: 1.~I with|Thee would be- gin, O my|Sav- ior so dear, On the|
w: 2.~I with|Thee would be- gin and go|forth in Thy Name, Which a-|
w: 3.~Let Thy|Word all di- vine be my|lamp in whose light I may|
w: 4.~I with|Thee would be- gin— yea, and|hear one more prayer, I would|
 [Dd]2 [FA][FB] [Fc]2 E[DF] | [DG]4 z2 [B,D][CE] | [B,D]2 [DG][DA] [DB]2 [CA][B,G] | %6
w: way that I still must pur-|I with Thee|would be- gin ev- ery day|
w: lone doth sal- va- tion be-|Fold me close|to Thy breast where found joy|
w: con- stant- ly keep to Thy|And each day|wouldst Thou cleanse me a- new,|
w: close with Thee, too, my brief|And when day-|light has failed, let me sleep|
 [EA]2 [EG][CE] [B,D]2 [DB][Ec] | [Dd]2 [FA][FB] [Fc]2 E[DF] | [DG]4 z2 [DG]2 | %9
w: grant- ed here, As my ear-|nest re- solve I re- new|be and|
w: all who came, There is ref-|uge for me, too, I know,|all in|
w: make me white In the blood|shed for me on that day|cross Thou|
w: in Thy care, Un- til wak-|ing Thy child Thou dost say,|live with|
 [Ee]2 [Gc][Ge] [Gd]2 G[GB] | (G2 F2) [DG]2 |] %11
w: re- main Thine for- ev- er.||
w: this world is con- fu- sion.||
w: didst suf- fer, Lord Je- sus.||
w: Me ev- er in Heav- en.”||
V:2
 x2 | x8 | x8 | x6 E x | x8 | x8 | x8 | x6 E x | x8 | x6 G x | A4 x2 |] %11
w: |||sue;||||To||||
w: |||stow;||||Though||||
w: |||way;||||The||||
w: |||day,||||“Come,||||
V:3
 G,G, | G,2 [B,,G,][A,,F,] [G,,G,]2 [D,F,][E,G,] | [C,G,]2 [C,G,][E,G,] G,2 G,[E,G,] | %3
 [F,A,]2 [D,C][D,B,] [D,A,]2 [D,G,][D,A,] | [G,,B,]4 z2 G,G, | %5
 G,2 [B,,G,][A,,F,] [G,,G,]2 [D,F,][E,G,] | [C,G,]2 [C,G,][E,G,] G,2 G,[E,G,] | %7
 [F,A,]2 [D,C][D,B,] [D,A,]2 [D,G,][D,A,] | [G,,B,]4 z2 [B,,G,]2 | %9
 [C,G,]2 [E,G,][C,C] [D,B,]2 [E,B,][B,,D] | [D,C]4 [G,B,]2 |] %11
V:4
 G,G, | G,2 x6 | x4 G,2 G, x | x8 | x6 G,G, | G,2 x6 | x4 G,2 G, x | x8 | x8 | x8 | x6 |] %11

